dist/assets/laptop_mac.svg

<svg width="20" height="20" viewBox="0 0 20 20" fill="none" xmlns="http://www.w3.org/2000/svg">
<g id="laptop_mac" clip-path="url(#clip0_0_959)">
<path id="Vector" d="M16.6667 15C17.5833 15 18.325 14.25 18.325 13.3333L18.3333 4.16667C18.3333 3.25 17.5833 2.5 16.6667 2.5H3.33333C2.41667 2.5 1.66667 3.25 1.66667 4.16667V13.3333C1.66667 14.25 2.41667 15 3.33333 15H0C0 15.9167 0.75 16.6667 1.66667 16.6667H18.3333C19.25 16.6667 20 15.9167 20 15H16.6667ZM3.33333 4.16667H16.6667V13.3333H3.33333V4.16667ZM10 15.8333C9.54167 15.8333 9.16667 15.4583 9.16667 15C9.16667 14.5417 9.54167 14.1667 10 14.1667C10.4583 14.1667 10.8333 14.5417 10.8333 15C10.8333 15.4583 10.4583 15.8333 10 15.8333Z" fill="#1C4980"/>
</g>
<defs>
<clipPath id="clip0_0_959">
<rect width="20" height="20" fill="white"/>
</clipPath>
</defs>
</svg>

<svg xmlns="http://www.w3.org/2000/svg" width="20" height="20" fill="none"><g clip-path="url(#a)"><path fill="#1C4980" d="M16.667 15c.916 0 1.658-.75 1.658-1.667l.008-9.166c0-.917-.75-1.667-1.666-1.667H3.333c-.916 0-1.666.75-1.666 1.667v9.166c0 .917.75 1.667 1.666 1.667H0c0 .917.75 1.667 1.667 1.667h16.666c.917 0 1.667-.75 1.667-1.667h-3.333ZM3.333 4.167h13.334v9.166H3.333V4.167ZM10 15.833A.836.836 0 0 1 9.167 15c0-.458.375-.833.833-.833.458 0 .833.375.833.833a.836.836 0 0 1-.833.833Z"/></g><defs><clipPath id="a"><path fill="#fff" d="M0 0h20v20H0z"/></clipPath></defs></svg>
